!!!SOCIAL_FUNCTION:	bird dance songs
!!!PDT:	1956
!!!OTL: No_85_Bird_Dance_Song_(h).krn
!!!LANG: Non-Tone
!!!LING_GROUP: Muskogean
!!!REG: Florida
**kern
*staff1
=1-
=
*clefF4
*k[b-e-a-]
*M3/4
8B-\L
8B-\J
8B-\L
8B-\J
4B-\
=2||
*M2/4
8G\L
8B-\J
8B-\L
8A-\J
=3
4G\
4E-\
=4
4G\
8B-\L
8B-\J
=5
16G\LK
8.A-\J
4G\
=6
8E-\L
8G\J
8G\L
8E-\J
=7||
*M3/4
4E-\
4BB-/
4E-\
=8
4B-\
8G\L
8A-\J
4G\
=9||
*M2/4
8E-\L
8G\J
8G\L
8E-\J
=10
4E-\
4BB-/
=11
4E-\
4r
=12||
*M3/4
4E-\
8G\L
8A-\J
4G\
=13||
*M2/4
8E-\L
8G\J
8G\L
8E-\J
=14
4E-\
4BB-/
=15
2E-\
=16:|!
*M3/4
8B-\L
8B-\J
8B-\L
8B-\J
4B-\
=17||
*M2/4
8G\L
8B-\J
8B-\L
8A-\J
=18||
*M3/4
4G\
4E-\
8G\
8r
=19
8B-\L
8B-\J
8B-\L
8B-\J
4B-\
=20||
*M2/4
8G\L
8A-\J
8G\L
8E-\J
=21||
*M3/4
4E-\
4BB-/
4E-\
=22
4B-\
8G\L
8A-\J
4G\
=23||
*M2/4
8E-\L
8G\J
8G\L
8E-\J
=24
4E-\
4BB-/
=25
4E-\
4r
=26||
*M3/4
4E-\
8G\L
8A-\J
4G\
=27||
*M2/4
8E-\L
8G\J
8G\L
8E-\J
=28
4E-\
4BB-/
=29
2E-\
=30||
*M3/4
8B-\L
8B-\J
8B-\L
8B-\J
4B-\
=31||
*M2/4
8G\L
8B-\J
8B-\L
8A-\J
=32||
*M3/4
4G\
4E-\
8G\
8r
=33
8B-\L
8B-\J
8G\L
8A-\J
4G\
=34||
*M2/4
8E-\L
8G\J
8G\L
8E-\J
=35||
*M3/4
4E-\
4BB-/
4E-\
=36
4B-\
8G\L
8A-\J
4G\
=37||
*M2/4
8E-\L
8G\J
8G\L
8E-\J
=38
4E-\
4BB-/
=39
4E-\
4r
=40||
*M3/4
4E-\
8G\L
8A-\J
4G\
=41||
*M2/4
8E-\L
8G\J
8G\L
8E-\J
=42
4E-\
4BB-/
=43
2E-\
==:|!
*-
